resources/svg/behance.svg

<svg width="15" height="15" viewBox="0 0 15 15" fill="none" xmlns="http://www.w3.org/2000/svg">
<path fill-rule="evenodd" clip-rule="evenodd" d="M0 2H3C4.65685 2 6 3.34315 6 5C6 5.86358 5.63511 6.64193 5.05111 7.1893C6.18952 7.61522 7 8.71296 7 10C7 11.6569 5.65685 13 4 13H0V2ZM1 8V12H4C5.10457 12 6 11.1046 6 10C6 8.89543 5.10457 8 4 8H1ZM1 7H3C4.10457 7 5 6.10457 5 5C5 3.89543 4.10457 3 3 3H1V7ZM14 4H9V3H14V4ZM8 9.5C8 7.567 9.567 6 11.5 6C13.433 6 15 7.567 15 9.5V10H9.05001C9.28164 11.1411 10.2905 12 11.5 12C12.3334 12 13.0717 11.5927 13.5268 10.964L14.3368 11.5504C13.7018 12.4276 12.6677 13 11.5 13C9.567 13 8 11.433 8 9.5ZM9.05001 9H13.95C13.7184 7.85888 12.7095 7 11.5 7C10.2905 7 9.28164 7.85888 9.05001 9Z" fill="black"/>
</svg>

<svg viewBox="0 0 15 15" fill="none" xmlns="http://www.w3.org/2000/svg" fill="currentColor"><path fill-rule="evenodd" clip-rule="evenodd" d="M0 2h3a3 3 0 012.051 5.19A3.001 3.001 0 014 13H0V2zm1 6v4h3a2 2 0 100-4H1zm0-1h2a2 2 0 100-4H1v4zm13-3H9V3h5v1zM8 9.5a3.5 3.5 0 117 0v.5H9.05a2.5 2.5 0 004.477.964l.81.586A3.5 3.5 0 018 9.5zM9.05 9h4.9a2.5 2.5 0 00-4.9 0z" fill="currentColor"/></svg>
